!!!OTL: Zhai hongling
!!!ARE: Asia, China,ÿJiangsu Liuhe
!! III, 447
!!!SCT: C1802
!!!YEM: Copyright 1995, estate of Helmut Schaffrath.
**kern
*ICvox
*Ivox
*M2/4
*k[f#c#]
*D:
{8.ee
16ff#
8.dd
16b
=1
8.ee
16ff#
8.dd
16b
=2
8a
8f#
8a
8b
=3
4dd}
{8r
8b
=4
8a
8f#
8a
8b
=5
4.dd
8b
=6
8a
8f#
8a
8b
=7
4dd
4r}
=8
{8b
4b
8a
=9
16f#
16a
4f#
8e
=10
4f#
4r}
=11
{8f#
8r
8dd
8r
=12
8.b
16dd
8b
8a
=13
8f#
8r
8dd
8r
=14
8.b
16dd
8b
8a
=15
8.f#
16a
8f#
8e
=16
4d
4r}
=17
{8.ff#
16aa
8ff#
8ee
=18
[2dd
=19
2dd]}
==
!!!AGN: Xiaodiao
!!!AMT: simple duple
!!!AIN: vox
!!!EED: Helmut Schaffrath
!!!EEV: 1.0
*-
!!!ONB: Tied note syntax fixed by Craig Sapp, 2004/05/03/
